X:1
T: The Belvidere Hornpipe
C:
R:Reel
Q:232
K:G
M:4/4
L:1/8
|:dc|Bcde dc Bc|dB gB bB gd|Bc de dc Bc|Aa ag fe dc|
Bc de dc Bc|dB gB bB gd|cB AG FD EF|G2B2 G2:|
|:GA|Bc BA G2BG|DG BG DG Bd|Bc BA G2BG|FG AB ce dc|
Bc BA G2BG|DG BG DG Bd|cB AG FD EF|G2B2 G2:|
